X:10
T:Cameron Highlanders
C:JS Skinner
Z:robin.beech@mcgill.ca
N:I've written the A and B repeats out in full to show the
N:variations in each part
R:reel
M:4/4
L:1/8
K:A
A2ce A2ce | efec e2ce | A2ce A2ce | d2cd BdcB |
A2ce A2ce | efec eaga | f3e ce Be | cAAA A2ce |
A2ce A2ce | efec e2ce | A2ce A2ce | d2cd B4 |
A2ce A2ce | efec eaga | faea ce Be | cAAA A2ce ||
fafe ceBe | cAAA A2ce | fafe ceAB | cBBB B2ce |
fafe ceBe | cAAA A2ce | fafe ceBe | cAAA A2ce |
f3e ceBe | cAAA A2ce | f3e ceAB | cBBB B2ce |
f3e ceBe | cAAA A2ce | fafe ceBe | cAAA A2ce |]
